X:106
T:Mr. Alexander Munro's Favourite
R:Strathspey
S:MacDonald - Skye Collection
N:pg.42
M:C
L:1/8
K:A Mix
e|A<A c>A d>Bc>A|BA d>BG>B|A<A c>A d>Bc>A|e>Be>d c>BA>a|
A<A c>A c>Bc>A|B>Gg>d B>AG>B|A<A c>A d>Bc>A|d>Ba>e c>BA>a||
e>ac>a e>ac>a|d>Bg>d B>AG>B|e>ac>a e>ac>a|d>Be>d c>BA>e|a>ec>e a>ec>e|
Bd B>AG>g|a>fg>e f>de>c|d>Ba>e c>BA:|
